X:1
T:Title
%%score { ( 1 5 ) | ( 2 3 4 ) }
L:1/8
M:4/4
K:G
V:1 treble nm="Grand Piano"
V:5 treble 
V:2 bass 
V:3 bass 
V:4 bass 
V:1
 z4 z2[Q:1/4=100] D2 | [DB]3 [DB] [Ec]E [CF]>A | [B,G]6 B2 | [FA]3 [FA] [Fd][Ec] [CA]>_B | %4
 [DB]6 D2 | [DB]4[K:bass][K:treble] z4 | [=Fd]4 [Ec][Ec][DB]A | d3 D [^CE]2 [=CF]2 | %8
 [B,G]6[K:bass] z2 | d2 d>d [Fd]3 [DF] | [DG]2 [Dc]2 [DB]4 | B2 B>B [^DB]3 [DF] | %12
 [EG]2 [EA]2 [^DB]3 [EB] | [Dd]4[K:bass][K:treble] z2 B2 | e4 z4 | [EAc]2 [DGB][CEA] d3 D | %16
[M:7/8] [^CE]2 [=CF]2 [B,G]3 |] %17
V:2
 z4 z2 B,2 | z2 z G,- G, z z2 | z ^C,E,D, G,2 G2 | z F,A,C .[D,A,]2 .[D,,D,]>^C | %4
 z C,E,D, G,2 B,2 | z2 z [G,D] [E,^G,E]D^G,,=F | z D,=F,^G, A,A,,B,,[C,C] | %7
 [D,B,]3 B,, A,,2 [D,,D,]2 | G,,6 z2 | [D,D]2 [D,D]>[D,D] [D,A,]3 [C,A,] | %10
 [B,,G,]2 [A,,F,]2 [G,,G,]4 | [B,,B,]2 [B,,B,]>[B,,B,] [B,,F,]3 [B,,B,] | %12
 [E,B,]2 [C,A,]2 [B,,F,]3 [E,G,] | z4[K:treble] z2 G2[K:bass] | E4 z4 | %15
 A,,2 B,,C, [D,B,D]3 [B,,G,] |[M:7/8] [A,,G,]2 [D,A,]2 [G,,G,]3 |] %17
V:3
 x8 | z B,, .D,2 C,C .[D,,D,]>C | G,,6 z2 | D,4 z4 | G,,6 z2 | G,,4 z4 | A,,6 z2 | x8 | x8 | x8 | %10
 x8 | x8 | x8 | [F,A,]D,E,[F,A,D][K:treble] [G,B,D]2 [G,D][K:bass]G, | [^G,B,]E,F,[G,B,E] [A,E]4 | %15
 x8 |[M:7/8] x7 |] %17
V:4
 x8 | G,,4 z4 | x8 | x8 | x8 | x8 | x8 | x8 | x8 | x8 | x8 | x8 | x8 | x4[K:treble] x3[K:bass] x | %14
 x8 | x8 |[M:7/8] x7 |] %17
V:5
 x8 | x8 | x8 | x8 | x8 | z[K:bass] B,,D,[K:treble]B cB[DB]d | x8 | x8 | z[K:bass] ^C,E,D, G,2 z2 | %9
 x8 | x8 | x8 | x8 | z[K:bass] F,G,[K:treble]c B2 z D | z ^G,A,d c4 | x8 |[M:7/8] x7 |] %17

